poi/svg/1010.svg

<?xml version="1.0" encoding="UTF-8" standalone="no"?>
<svg
   xmlns:dc="http://purl.org/dc/elements/1.1/"
   xmlns:cc="http://creativecommons.org/ns#"
   xmlns:rdf="http://www.w3.org/1999/02/22-rdf-syntax-ns#"
   xmlns:svg="http://www.w3.org/2000/svg"
   xmlns="http://www.w3.org/2000/svg"
   xmlns:sodipodi="http://sodipodi.sourceforge.net/DTD/sodipodi-0.dtd"
   xmlns:inkscape="http://www.inkscape.org/namespaces/inkscape"
   inkscape:version="1.0 (4035a4fb49, 2020-05-01)"
   sodipodi:docname="1010.svg"
   id="svg20"
   version="1.2"
   viewBox="0 0 42.519639 42.519639"
   height="14.999999mm"
   width="14.999999mm">
  <metadata
     id="metadata24">
    <rdf:RDF>
      <cc:Work
         rdf:about="">
        <dc:format>image/svg+xml</dc:format>
        <dc:type
           rdf:resource="http://purl.org/dc/dcmitype/StillImage" />
        <dc:title>Qt SVG Document</dc:title>
      </cc:Work>
    </rdf:RDF>
  </metadata>
  <sodipodi:namedview
     inkscape:current-layer="svg20"
     inkscape:window-maximized="1"
     inkscape:window-y="-9"
     inkscape:window-x="-9"
     inkscape:cy="30.337505"
     inkscape:cx="5.8449971"
     inkscape:zoom="6.3809115"
     fit-margin-bottom="0"
     fit-margin-right="0"
     fit-margin-left="0"
     fit-margin-top="0"
     showgrid="false"
     id="namedview22"
     inkscape:window-height="1013"
     inkscape:window-width="1920"
     inkscape:pageshadow="2"
     inkscape:pageopacity="0"
     guidetolerance="10"
     gridtolerance="10"
     objecttolerance="10"
     borderopacity="1"
     bordercolor="#666666"
     pagecolor="#ffffff" />
  <title
     id="title2">Qt SVG Document</title>
  <desc
     id="desc4">Generated with Qt</desc>
  <defs
     id="defs6" />
  <g
     transform="translate(5.25984,5.25984)"
     id="g18"
     stroke-linejoin="bevel"
     stroke-linecap="square"
     fill-rule="evenodd"
     stroke-width="1"
     stroke="#000000"
     fill="none">
    <g
       id="g10"
       font-style="normal"
       font-weight="400"
       font-size="7.8px"
       font-family="'MS Shell Dlg 2'"
       stroke="none"
       fill-opacity="1"
       fill="#1f78b4">
      <path
         id="path8"
         d="M 37.2598,16 C 37.2598,27.7415 27.7415,37.2598 16,37.2598 4.25851,37.2598 -5.25984,27.7415 -5.25984,16 -5.25984,4.25851 4.25851,-5.25984 16,-5.25984 27.7415,-5.25984 37.2598,4.25851 37.2598,16"
         fill-rule="evenodd"
         vector-effect="non-scaling-stroke" />
    </g>
    <g
       id="g14"
       font-style="normal"
       font-weight="400"
       font-size="7.8px"
       font-family="'MS Shell Dlg 2'"
       transform="translate(15.4331,12.5984)"
       stroke="none"
       fill-opacity="0.94902"
       fill="#ffffff">
      <path
         id="path12"
         d="M -0.302734,2.47217 0.915039,9.12793 H -2.82227 L -5.40479,3.50098 -8.47021,9.23291 h -3.48539 l 1.3858,-6.92871 5.16501,-4.05225 5.102056,4.22022 M 6.98291,-6.3042 H 5.11426 v -0.41992 l 1.42773,-1.67969 0.5249,0.60889 0.5879,-0.60889 1.42773,1.67969 V -6.3042 H 7.23486 6.98291 m 2.43555,3.92627 c 0.75584,0 1.36824,0.27645 1.83714,0.82935 0.4689,0.552893 0.7034,1.165279 0.7034,1.837154 V 6.37744 c 0,0.32194 -0.084,0.5599 -0.252,0.71387 -0.1679,0.15397 -0.3464,0.23096 -0.5354,0.23096 -0.1889,0 -0.3709,-0.07699 -0.5459,-0.23096 C 10.4508,6.93734 10.3633,6.69938 10.3633,6.37744 V 0.456543 H 9.69141 V 16.2246 c 0,0.3219 -0.10848,0.5914 -0.32544,0.8084 -0.21696,0.2169 -0.48641,0.3254 -0.80835,0.3254 -0.30795,0 -0.5774,-0.1085 -0.80835,-0.3254 C 7.51831,16.816 7.40283,16.5465 7.40283,16.2246 V 7.19629 H 6.70996 v 9.02831 c 0,0.3219 -0.11548,0.5914 -0.34643,0.8084 -0.23096,0.2169 -0.50041,0.3254 -0.80835,0.3254 -0.32194,0 -0.58789,-0.1085 -0.79786,-0.3254 C 4.54736,16.816 4.44238,16.5465 4.44238,16.2246 V 0.456543 H 3.62354 V 6.37744 c 0,0.32194 -0.08049,0.5599 -0.24146,0.71387 C 3.22111,7.24528 3.04264,7.32227 2.84668,7.32227 2.65072,7.32227 2.47225,7.24528 2.31128,7.09131 2.15031,6.93734 2.06982,6.69938 2.06982,6.37744 V 0.288574 c 0,-0.755859 0.25196,-1.389244 0.75586,-1.900144 0.50391,-0.51091 1.12679,-0.76636 1.86866,-0.76636 h 4.72412 m -5.417,-2.54053 c -0.25195,0 -0.37792,-0.11897 -0.37792,-0.35693 0,-0.22396 0.12597,-0.33594 0.37792,-0.33594 h 6.10984 c 0.084,0 0.168,0.021 0.252,0.06299 0.084,0.04199 0.126,0.13298 0.126,0.27295 0,0.08398 -0.042,0.16447 -0.126,0.24145 -0.084,0.07699 -0.168,0.11548 -0.252,0.11548 H 9.08252 v 0.16797 c 0,0.5459 -0.20996,1.01831 -0.62988,1.41724 -0.41993,0.39892 -0.88184,0.59839 -1.38575,0.59839 -0.57389,0 -1.0568,-0.19947 -1.44873,-0.59839 C 5.22624,-3.73218 5.03027,-4.20459 5.03027,-4.75049 V -4.91846 H 4.00146 m -7.30664,2.26758 c -0.05599,0 -0.11197,-0.05599 -0.16796,-0.16797 -0.05599,-0.11198 -0.20297,-0.16797 -0.44092,-0.16797 H -5.40479 V -5.7793 h 1.49073 c 0.23795,0 0.38493,0.05599 0.44092,0.16797 0.05599,0.11198 0.11197,0.19597 0.16796,0.25195 0.16797,0.18197 0.35694,0.27295 0.5669,0.27295 h 1.28076 v 2.7085 h -1.28076 c -0.20996,0 -0.39893,-0.09098 -0.5669,-0.27295"
         fill-rule="evenodd"
         vector-effect="none" />
    </g>
    <g
       id="g16"
       font-style="normal"
       font-weight="400"
       font-size="7.8px"
       font-family="'MS Shell Dlg 2'"
       stroke="none"
       fill-opacity="1"
       fill="#1f78b4" />
  </g>
</svg>

<?xml version="1.0" encoding="UTF-8" standalone="no"?>
<svg width="11.2889mm" height="11.2889mm"
 viewBox="0 0 32 32"
 xmlns="http://www.w3.org/2000/svg" xmlns:xlink="http://www.w3.org/1999/xlink"  version="1.2" baseProfile="tiny">
<title>Qt SVG Document</title>
<desc>Generated with Qt</desc>
<defs>
</defs>
<g fill="none" stroke="black" stroke-width="1" fill-rule="evenodd" stroke-linecap="square" stroke-linejoin="bevel" >

<g fill="#1f78b4" fill-opacity="1" stroke="none" transform="matrix(1,0,0,1,0,0)"
font-family="MS Shell Dlg 2" font-size="7.8" font-weight="400" font-style="normal" 
>
<path vector-effect="non-scaling-stroke" fill-rule="evenodd" d="M37.2598,16 C37.2598,27.7415 27.7415,37.2598 16,37.2598 C4.25851,37.2598 -5.25984,27.7415 -5.25984,16 C-5.25984,4.25851 4.25851,-5.25984 16,-5.25984 C27.7415,-5.25984 37.2598,4.25851 37.2598,16 "/>
</g>

<g fill="#ffffff" fill-opacity="0.94902" stroke="none" transform="matrix(1,0,0,1,15.4331,12.5984)"
font-family="MS Shell Dlg 2" font-size="7.8" font-weight="400" font-style="normal" 
>
<path vector-effect="none" fill-rule="evenodd" d="M-0.302734,2.47217 L0.915039,9.12793 L-2.82227,9.12793 L-5.40479,3.50098 L-8.47021,9.23291 L-11.9556,9.23291 L-10.5698,2.3042 L-5.40479,-1.74805 L-0.302734,2.47217 M6.98291,-6.3042 L5.11426,-6.3042 L5.11426,-6.72412 L6.54199,-8.40381 L7.06689,-7.79492 L7.65479,-8.40381 L9.08252,-6.72412 L9.08252,-6.3042 L7.23486,-6.3042 L6.98291,-6.3042 M9.41846,-2.37793 C10.1743,-2.37793 10.7867,-2.10148 11.2556,-1.54858 C11.7245,-0.995687 11.959,-0.383301 11.959,0.288574 L11.959,6.37744 C11.959,6.69938 11.875,6.93734 11.707,7.09131 C11.5391,7.24528 11.3606,7.32227 11.1716,7.32227 C10.9827,7.32227 10.8007,7.24528 10.6257,7.09131 C10.4508,6.93734 10.3633,6.69938 10.3633,6.37744 L10.3633,0.456543 L9.69141,0.456543 L9.69141,16.2246 C9.69141,16.5465 9.58293,16.816 9.36597,17.033 C9.14901,17.2499 8.87956,17.3584 8.55762,17.3584 C8.24967,17.3584 7.98022,17.2499 7.74927,17.033 C7.51831,16.816 7.40283,16.5465 7.40283,16.2246 L7.40283,7.19629 L6.70996,7.19629 L6.70996,16.2246 C6.70996,16.5465 6.59448,16.816 6.36353,17.033 C6.13257,17.2499 5.86312,17.3584 5.55518,17.3584 C5.23324,17.3584 4.96729,17.2499 4.75732,17.033 C4.54736,16.816 4.44238,16.5465 4.44238,16.2246 L4.44238,0.456543 L3.62354,0.456543 L3.62354,6.37744 C3.62354,6.69938 3.54305,6.93734 3.38208,7.09131 C3.22111,7.24528 3.04264,7.32227 2.84668,7.32227 C2.65072,7.32227 2.47225,7.24528 2.31128,7.09131 C2.15031,6.93734 2.06982,6.69938 2.06982,6.37744 L2.06982,0.288574 C2.06982,-0.467285 2.32178,-1.10067 2.82568,-1.61157 C3.32959,-2.12248 3.95247,-2.37793 4.69434,-2.37793 L9.41846,-2.37793 M4.00146,-4.91846 C3.74951,-4.91846 3.62354,-5.03743 3.62354,-5.27539 C3.62354,-5.49935 3.74951,-5.61133 4.00146,-5.61133 L10.1113,-5.61133 C10.1953,-5.61133 10.2793,-5.59033 10.3633,-5.54834 C10.4473,-5.50635 10.4893,-5.41536 10.4893,-5.27539 C10.4893,-5.19141 10.4473,-5.11092 10.3633,-5.03394 C10.2793,-4.95695 10.1953,-4.91846 10.1113,-4.91846 L9.08252,-4.91846 L9.08252,-4.75049 C9.08252,-4.20459 8.87256,-3.73218 8.45264,-3.33325 C8.03271,-2.93433 7.5708,-2.73486 7.06689,-2.73486 C6.493,-2.73486 6.01009,-2.93433 5.61816,-3.33325 C5.22624,-3.73218 5.03027,-4.20459 5.03027,-4.75049 L5.03027,-4.91846 L4.00146,-4.91846 M-3.30518,-2.65088 C-3.36117,-2.65088 -3.41715,-2.70687 -3.47314,-2.81885 C-3.52913,-2.93083 -3.67611,-2.98682 -3.91406,-2.98682 L-5.40479,-2.98682 L-5.40479,-5.7793 L-3.91406,-5.7793 C-3.67611,-5.7793 -3.52913,-5.72331 -3.47314,-5.61133 C-3.41715,-5.49935 -3.36117,-5.41536 -3.30518,-5.35938 C-3.13721,-5.17741 -2.94824,-5.08643 -2.73828,-5.08643 L-1.45752,-5.08643 L-1.45752,-2.37793 L-2.73828,-2.37793 C-2.94824,-2.37793 -3.13721,-2.46891 -3.30518,-2.65088 "/>
</g>

<g fill="#1f78b4" fill-opacity="1" stroke="none" transform="matrix(1,0,0,1,0,0)"
font-family="MS Shell Dlg 2" font-size="7.8" font-weight="400" font-style="normal" 
>
</g>
</g>
</svg>
